static/icons/companies/discord-gray.svg

<svg width="24" height="24" viewBox="0 0 24 24" fill="none" xmlns="http://www.w3.org/2000/svg">
<mask id="mask0_1387_3215" style="mask-type:luminance" maskUnits="userSpaceOnUse" x="2" y="4" width="20" height="16">
<path d="M22 4H2V20H22V4Z" fill="white"/>
</mask>
<g mask="url(#mask0_1387_3215)">
<path d="M18.9309 5.42515C17.6561 4.82111 16.2891 4.37607 14.8599 4.12118C14.8339 4.11627 14.8079 4.12856 14.7944 4.15315C14.6187 4.47606 14.4239 4.89732 14.2876 5.22844C12.7503 4.99076 11.221 4.99076 9.71526 5.22844C9.57887 4.88997 9.37706 4.47606 9.20047 4.15315C9.18706 4.12939 9.16106 4.11709 9.13504 4.12118C7.70659 4.37526 6.33963 4.82029 5.06411 5.42515C5.05306 5.43007 5.0436 5.43827 5.03732 5.44891C2.44449 9.44932 1.73421 13.3514 2.08265 17.2051C2.08422 17.2239 2.09447 17.2419 2.10866 17.2534C3.81934 18.5508 5.47642 19.3385 7.10273 19.8606C7.12875 19.8687 7.15633 19.8588 7.1729 19.8367C7.5576 19.2942 7.90053 18.7222 8.19456 18.1205C8.21191 18.0853 8.19535 18.0435 8.15988 18.0295C7.61594 17.8165 7.098 17.5567 6.59977 17.2617C6.56036 17.2379 6.55721 17.1796 6.59346 17.1517C6.69831 17.0706 6.80317 16.9863 6.9033 16.901C6.92141 16.8854 6.94664 16.8822 6.96794 16.8919C10.2411 18.4353 13.7847 18.4353 17.0191 16.8919C17.0404 16.8813 17.0657 16.8846 17.0846 16.9002C17.1847 16.9855 17.2896 17.0706 17.3952 17.1517C17.4314 17.1796 17.4291 17.2379 17.3897 17.2617C16.8914 17.5624 16.3734 17.8165 15.8288 18.0287C15.7933 18.0426 15.7776 18.0853 15.7949 18.1205C16.0952 18.7212 16.4381 19.2934 16.8158 19.8359C16.8316 19.8588 16.8599 19.8687 16.8859 19.8606C18.5201 19.3385 20.1772 18.5508 21.8879 17.2534C21.9029 17.2419 21.9123 17.2247 21.9139 17.2059C22.3309 12.7506 21.2154 8.88053 18.9569 5.44973C18.9513 5.43827 18.9419 5.43007 18.9309 5.42515ZM8.68335 14.8586C7.69791 14.8586 6.88594 13.9242 6.88594 12.7769C6.88594 11.6294 7.68216 10.6951 8.68335 10.6951C9.69239 10.6951 10.4966 11.6376 10.4808 12.7769C10.4808 13.9242 9.68451 14.8586 8.68335 14.8586ZM15.329 14.8586C14.3436 14.8586 13.5316 13.9242 13.5316 12.7769C13.5316 11.6294 14.3278 10.6951 15.329 10.6951C16.338 10.6951 17.1421 11.6376 17.1263 12.7769C17.1263 13.9242 16.338 14.8586 15.329 14.8586Z" fill="#B6B6B7"/>
</g>
</svg>

<svg xmlns="http://www.w3.org/2000/svg" width="24" height="24" fill="none"><mask id="a" width="20" height="16" x="2" y="4" maskUnits="userSpaceOnUse" style="mask-type:luminance"><path fill="#fff" d="M22 4H2v16h20z"/></mask><g mask="url(#a)"><path fill="#B6B6B7" d="M18.93 5.425a16.116 16.116 0 0 0-4.07-1.304.061.061 0 0 0-.066.032c-.175.323-.37.744-.506 1.075a14.749 14.749 0 0 0-4.573 0A11.031 11.031 0 0 0 9.2 4.153a.064.064 0 0 0-.065-.032 16.07 16.07 0 0 0-4.07 1.304.059.059 0 0 0-.028.024c-2.593 4-3.303 7.902-2.954 11.756a.072.072 0 0 0 .026.048 16.388 16.388 0 0 0 4.994 2.608.064.064 0 0 0 .07-.024 12.31 12.31 0 0 0 1.022-1.716.066.066 0 0 0-.035-.091 10.767 10.767 0 0 1-1.56-.768.068.068 0 0 1-.007-.11c.105-.081.21-.166.31-.251a.06.06 0 0 1 .065-.01c3.273 1.544 6.817 1.544 10.051 0a.06.06 0 0 1 .066.01c.1.084.205.17.31.25a.068.068 0 0 1-.005.11c-.499.301-1.017.556-1.561.768a.067.067 0 0 0-.034.091c.3.601.643 1.173 1.02 1.716a.063.063 0 0 0 .07.025 16.334 16.334 0 0 0 5.003-2.608.067.067 0 0 0 .026-.047c.417-4.455-.699-8.325-2.957-11.756a.052.052 0 0 0-.026-.025M8.684 14.86c-.985 0-1.797-.935-1.797-2.082 0-1.148.796-2.082 1.797-2.082 1.01 0 1.814.943 1.798 2.082 0 1.147-.796 2.082-1.798 2.082m6.646 0c-.985 0-1.797-.935-1.797-2.082 0-1.148.796-2.082 1.797-2.082 1.009 0 1.813.943 1.797 2.082 0 1.147-.788 2.082-1.797 2.082"/></g></svg>
